X:605
T: O ENGEL ALLERSCHOENSTES KIND
N: E0561A
O: Europa, Mitteleuropa, Deutschland, Hessen, Odenwald
R: Liebes - Lied
M: 3/4
L: 1/16
K: Bb
F4 | B2AGF4G4 | F2FED2
F2B2c2 | d4d4d2c2 | B4z4
F2GA | B2BAG4G2AB | c2cAF2
F2B2c2 | d4d4d2c2 | B4z4

@@@ Tune index: 4255
